!!!COM: Beethoven, Ludwig van
!!!CDT: 1770-1827
!!!OTL: Piano Sonata no. 18 in E-flat major
!!!OTP: the hunt
!!!ODT: 1794-1795
!!!OPS: 31
!!!ONM: 3
!!!OMV: 4
!!!OMD: Presto con fuoco
**kern	**kern	**dynam
*Ipiano	*Ipiano	*Ipiano
*staff2	*staff1	*staff1/2
*Ipiano	*Ipiano	*Ipiano
*>[I,A,A1,A,A2,B]	*>[I,A,A1,A,A2,B]	*>[I,A,A1,A,A2,B]
*>norep[I,A,A2,B]	*>norep[I,A,A2,B]	*>norep[I,A,A2,B]
*>I	*>I	*>I
*clefF4	*clefG2	*
*k[b-e-a-]	*k[b-e-a-]	*k[b-e-a-]
*E-:	*E-:	*E-:
*M6/8	*M6/8	*M6/8
*MM240	*MM240	*MM240
!	!	!LO:DY:a=2
8E-L	8r	p
8GJ	8r	.
*>A	*>A	*>A
=1!|:	=1!|:	=1!|:
8BB-L	2.r	.
8E-	.	.
8GJ	.	.
8DL	.	.
8E-	.	.
8GJ	.	.
=2	=2	=2
8BB-L	4r	.
8E-	.	.
8GJ	8r	.
8DL	4r	.
8E-	.	.
8GJ	8bb-'	.
=3	=3	=3
8BB-L	(4bb-^	.
8F	.	.
8A-J	8aa-	.
8EnL	4ff	.
8F	.	.
8A-J	8dd)	.
=4	=4	=4
8BB-L	4ee-'	.
8E-X	.	.
8GJ	8r	.
8DL	4r	.
8E-	.	.
8GJ	8b-'	.
=5	=5	=5
8BB-L	(4b-^/	.
8F	.	.
8A-J	8a-	.
8EnL	4f	.
8F	.	.
8A-J	8d)	.
=6	=6	=6
4EE-X 4E-X	4G 4e-	.
8r	8r	.
8r	4r	.
8E-L	.	.
8GJ	8r	.
!!LO:LB:g=original
=7	=7	=7
8BB-L	2.r	.
8E-	.	.
8GJ	.	.
8DL	.	.
8E-	.	.
8GJ	.	.
=8	=8	=8
8BB-L	4r	.
8E-	.	.
8GJ	8r	.
8DL	4r	.
8E-	.	.
8GJ	8bb-'	.
=9	=9	=9
8BB-L	(4bb-^	.
8F	.	.
8A-J	8aa-	.
8EnL	4ff	.
8F	.	.
8A-J	8dd)	.
=10	=10	=10
8BB-L	4ee-'	.
8E-X	.	.
8GJ	8r	.
8DL	4r	.
8E-	.	.
8GJ	8b-'	.
=11	=11	=11
8BB-L	(4b-^/	.
8F	.	.
8A-J	8a-	.
8EnL	4f	.
8F	.	.
8A-J	8d)	.
=12	=12	=12
4EE-X 4E-X	4G 4e-	.
8r	8r	.
4r	8B-L	f
.	8re	.
8r	(8B-J	.
=13	=13	=13
4EE- 4E-	8G) 8e-L	sf
.	8re	.
8r	(8e-J	.
*clefG2	*	*
4b-	8B-L)	.
.	8re	.
8r	(8B-J	.
!!LO:LB:g=original
=14	=14	=14
4r	8G) 8e-L	.
.	8re	.
8r	(8e-J	.
4b-	8B-L)	.
.	8re	.
8r	(8B-J	.
=15	=15	=15
4r	8G) 8e-L	.
.	8re	.
8r	(8e-J	.
4b-	8B-L)	.
.	8re	.
8r	(8B-J	.
=16	=16	=16
4b-	8d) 8fL	.
.	8rg	.
8r	(8d 8fJ	.
4r	8B-L)	.
.	8re	.
8r	(8B-J	.
*clefF4	*	*
=17	=17	=17
4BBB- 4BB-	8d) 8fL	.
.	8rg	.
8r	(8d 8fJ	.
*clefG2	*	*
4b-	8B-L)	.
.	8re	.
8r	(8B-J	.
=18	=18	=18
4r	8d) 8fL	.
.	8rg	.
8r	(8d 8fJ	.
4b-	8B-L)	.
.	8re	.
8r	(8B-J	.
=19	=19	=19
4r	8d) 8fL	.
.	8rg	.
8r	(8d 8fJ	.
4b-	8B-L)	.
.	8re	.
8r	(8B-J	.
=20	=20	=20
*^	*	*
4ryy	4b-	8e-) 8gL	.
.	.	8r	.
8r	8r	(8gJ	.
*v	*v	*	*
*clefF4	*	*
*^	*	*
4.E-	([>4.E-	8e-L)	p
.	.	8r	.
.	.	(8e-J	.
!!LO:LB:g=original
=21	=21	=21	=21
2.E-_	4.C	8a-L)	.
.	.	8r	.
.	.	(<8a-J	.
.	4.AA-	8ccL)	.
.	.	8r	.
.	.	(8ccJ	.
=22	=22	=22	=22
4E-]	4GG)	8b-L)	.
.	.	8r	.
8r	8r	(8b-J	.
[4.E-^	(4.E-	8ee-L)	.
.	.	8rdd	.
.	.	(8ee-J	.
=23	=23	=23	=23
2.E-_	4.C	8aa-L)	.
.	.	8r	.
.	.	(8aa-J	.
.	4.AA-	8cccL)	.
.	.	8r	.
.	.	(8cccJ	.
=24	=24	=24	=24
4E-]	4GG)	8bb-L)	.
.	.	8r	.
8r	8r	(8b-J	.
4.E-^	([>4.E-	8e-L)	.
.	.	8rg	.
.	.	(8e-J	.
=25	=25	=25	=25
2.E-_	4.C	8a-L)	.
.	.	8r	.
.	.	(<8a-J	.
.	4.AA-	8ccL)	.
.	.	8r	.
.	.	(8ccJ	.
=26	=26	=26	=26
4E-]	4GG)	8b-L)	.
.	.	8r	.
8r	8r	(8gJ	.
4AA- 4F	4ryy	8fL)	.
.	.	8r	.
8r	8r	(8a-J	.
*v	*v	*	*
=27	=27	=27
4BB- 4G	8e-L)	.
.	8r	.
8r	(8gJ	.
4BB- 4A-	8dL)	.
.	8rg	.
8r	(8fJ	.
!!LO:LB:g=original
=28	=28	=28
*^	*	*
4ryy	4EE-	4e-)	.
8r	8r	8r	.
[4.E-	(4.E-^	8e-L	.
.	.	8rg	.
.	.	(8e-J	.
=29	=29	=29	=29
2.E-_	4.C-	8a-L)	.
.	.	8r	.
.	.	8a-J	.
.	4.AA-	8cc-L	.
.	.	8r	.
.	.	(8cc-J	.
=30	=30	=30	=30
4E-]	4GG-)	8b-L)	.
.	.	8r	.
8r	8r	(8b-J	.
4.E-^	([4.E-	8ee-L)	.
.	.	8rdd	.
.	.	(8ee-J	.
=31	=31	=31	=31
2.E-_	4.C-	8aa-L)	.
.	.	8r	.
.	.	(8aa-J	.
.	4.AA-	8ccc-L)	.
.	.	8r	.
.	.	(8ccc-J	.
=32	=32	=32	=32
4E-]	4GG-)	8bb-L)	<
.	.	8r	.
8r	8r	(8b-J	.
4.E-^	([4.E-	8e-L)	.
.	.	8rg	.
.	.	(8e-J	.
=33	=33	=33	=33
2.E-]	4.Cn	8anL)	.
.	.	8r	.
.	.	(8aJ	.
.	4.BB-	8ccL)	.
.	.	8r	.
.	.	(8ccJ	.
*v	*v	*	*
=34	=34	=34
*	*^	*
8AAnL)	4.f)	[2.f	f
8c	.	.	.
8e-J	.	.	.
8AnL	[4.ff	.	.
8c	.	.	.
8e-J	.	.	.
!!LO:LB:g=original
=35	=35	=35	=35
8AnL	4.ff]	4.f]	.
8c	.	.	.
8e-J	.	.	.
8AL	4ryy	4ff	.
8c	.	.	.
8e-J	8r	8r	.
*	*v	*v	*
=36	=36	=36
8AnL	4ff	.
8c	.	.
8e-J	8r	.
8AL	4ff	.
8c	.	.
8e-J	8r	.
=37	=37	=37
8AnL	4ff	.
8c	.	.
8e-J	8r	.
8dL	4ff	.
8c	.	.
8B-J	8r	.
=38	=38	=38
*	*^	*
8AnL	(4.ff	[2.ff	.
8c	.	.	.
8e-J	.	.	.
!	!LO:DY:rj	!	!
8AL	[4.fffz)	.	.
8c	.	.	.
8e-J	.	.	.
*	*v	*v	*
=39	=39	=39
8AnL	4.ff] 4.fff]	.
8c	.	.
8e-J	.	.
8AL	4ff 4fff	.
8c	.	.
8e-J	8r	.
=40	=40	=40
8AnL	4ff 4fff	.
8c	.	.
8e-J	8r	.
8AL	4ff 4fff	.
8c	.	.
8e-J	8r	.
!!LO:LB:g=original
=41	=41	=41
8AnL	4ff 4fff	.
8c	.	.
8e-J	8r	.
8AL	4ff 4fff	.
8c	.	.
8e-J	8r	.
=42	=42	=42
8AnL	4ff 4fff	sf
8c	.	.
8e-J	8aan	.
8dL	8bb-L	.
8c	8ccc	.
8B-J	8dddJ	.
=43	=43	=43
8AnL	4r	.
8B-	.	.
8cJ	8ff#	.
8B-L	8ggL	.
8A	8aan	.
8GJ	8bb-J	.
=44	=44	=44
8FL	4r	.
8G	.	.
8A-XJ	8dd	.
8GL	8ee-L	.
8F	8ffn	.
8E-J	8ggJ	.
=45	=45	=45
8DL	4r	.
8E-	.	.
8FJ	8bn	.
8E-L	8ccL	.
8D	8dd	.
8CJ	8ee-J	.
=46	=46	=46
4EE-	8r	.
.	8cL	.
8r	8e-J	.
4r	8gL	.
.	8e-	.
8r	8gJ	.
=47	=47	=47
4E- 4G 4c	8ccL	sf
.	8g	.
8r	8ccJ	.
4r	8ee-L	.
.	8cc	.
8r	8ee-J	.
!!LO:LB:g=original
=48	=48	=48
4r	8ggL	.
.	8ff	.
8r	8ee-J	.
8E-L	8ddL	.
8G	8ee-	.
8cJ	8ccJ	.
=49	=49	=49
8FL	8ffL	.
8B-	8dd	.
8dJ	8b-J	.
8FL	8ee-L	.
8c	8cc	.
8e-J	8anJ	.
=50	=50	=50
8AnL	8r	.
8c	(8fffL	.
8e-J	8aanJ	.
8dL	8bb-L	.
8c	8ccc	.
8B-J	8dddJ)	.
=51	=51	=51
8AnL	8r	.
8B-	(8dddL	.
8cJ	8ff#J	.
8B-L	8ggL	.
8A	8aan	.
8GJ	8bb-J)	.
=52	=52	=52
8FL	8r	.
8G	(8bb-L	.
8A-XJ	8ddJ	.
8GL	8ee-L	.
8F	8ff	.
8E-J	8ggJ)	.
=53	=53	=53
8DL	8r	.
8E-	(8ggL	.
8FJ	8bnJ	.
8E-L	8ccL	.
8D	8dd	.
8CJ	8ee-J)	.
=54	=54	=54
4EE-	8r	.
.	8GL	.
8r	8cJ	.
4r	8e-L	.
.	8c	.
8r	8e-J	.
!!LO:LB:g=original
=55	=55	=55
4E- 4G	8gL	sf
.	8c	.
8r	8e-J	.
4r	8gL	.
.	8e-	.
8r	8gJ	.
=56	=56	=56
4E- 4G 4c	8ccL	sf
.	8e-	.
8r	8gJ	.
4r	8ccL	.
.	8g	.
8r	8ccJ	.
=57	=57	=57
4E- 4G 4c 4e-	8ee-L	sf
.	8g	.
8r	8ccJ	.
4r	8ee-L	.
.	8cc	.
8r	8ee-J	.
=58	=58	=58
8r	8ggL	sf
8e-L	8g	.
8cJ	8ccJ	.
8GL	8ee-L	.
8c	8cc	.
8GJ	8ee-J	.
=59	=59	=59
8E-L	8ggL	sf
8e-	8g	.
8cJ	8ccJ	.
8GL	8ee-L	.
8c	8cc	.
8GJ	8ee-J	.
=60	=60	=60
4E-	8ggL	.
.	(8g	.
8r	8f#J	.
4r	8gL<	.
.	8a-	.
8r	8anJ	.
=61	=61	=61
2.r	8b-L	.
.	8bn	.
.	8ccJ	.
.	8cc#L	.
.	8dd	.
.	8ee-J	.
!!LO:LB:g=original
=62	=62	=62
4r	8eenL	.
.	8ff	.
8r	8ff#J	.
4E- 4G 4c	8ggL	.
.	8ee-	.
8r	8ccJ)	.
=63	=63	=63
4F 4B- 4d	4b-X	.
8r	8r	.
4F 4An 4c 4e-	4.ccT	.
8r	.	.
.	(16b-qLL	.
.	16ccqJJ)	.
=64	=64	=64
8BB-L	8b-L	p
8F	8r	.
8B-J	(8b-J	.
8dL	8dd'L)	.
8B-	8rdd	.
8FJ	(8ddJ	.
=65	=65	=65
8BB-L	8ff'L)	.
8F	8rdd	.
8B-J	(8ffJ	.
8dL	8bb-'L)	.
8B-	8r	.
8FJ	(8bb-J	.
=66	=66	=66
8BB-L	8ddd'L)	.
8F	8raa	.
8B-J	(8dddJ	.
8dL	8fff'L)	.
8B-	8rff	.
8FJ	(8bb-J	.
=67	=67	=67
8BB-L	8ddd'L)	.
8F	8rff	.
8B-J	(8ffJ	.
8dL	8bb-'L)	.
8B-	8rdd	.
8FJ	(8ddJ	.
=68	=68	=68
8BB-L	8ff'L)	.
8F	8r	.
8B-J	(8b-J	.
8dL	8dd'L)	.
8B-	8r	.
8FJ	(8ccJ	.
!!LO:LB:g=original
=69	=69	=69
8FFL	8ee-'L)	.
8F	8r	.
8AnJ	(8anJ	.
8cL	8cc'L)	.
8A	8r	.
8FJ	(8aJ	.
=70	=70	=70
8BB-L	8b-'L)	.
8F	8r	.
8B-J	(8b-J	.
8dL	8dd'L)	.
8B-	8rdd	.
8FJ	(8ddJ	.
=71	=71	=71
8BB-L	8ff'L)	.
8F	8rdd	.
8B-J	(8ffJ	.
8dL	8bb-'L)	.
8B-	8rff	.
8FJ	(8bb-J	.
=72	=72	=72
8BB-L	8ddd'L)	.
8F	8rff	.
8B-J	(8dddJ	.
8dL	8fff'L)	.
8B-	8rff	.
8FJ	(8bb-J	.
=73	=73	=73
8BB-L	8ddd'L)	.
8F	8rff	.
8B-J	(8ffJ	.
8dL	8bb-'L)	.
8B-	8rdd	.
8FJ	(8ddJ	.
=74	=74	=74
8BB-L	8ff'L)	<
8F	8r	.
8B-J	(8b-J	.
8dL	8dd'L<)	.
8B-	8r	.
8FJ	(>8fJ	.
=75	=75	=75
8BB-L	8b-'L)	.
8D	8r	.
8FJ	(8dJ	.
8B-L	8fL')	.
8F	8rg	.
8DJ	(8B-J	.
!!LO:LB:g=original
=76	=76	=76
4BB-	8d'L)	.
.	8rg	.
*	*clefF4	*
8r	(8FJ	.
4BBB-	8B-'L)	ff
.	8rF	.
8r	(8DJ	.
=77	=77	=77
4BBB-	8F'L)	.
.	8r	.
8r	(8EnJ	.
4BBB-	8G'L)	.
.	8rF	.
8r	(8FJ	.
=78	=78	=78
*>A1	*>A1	*>A1
[2.BBB-	[2.D [2.F [2.A-X)	sf
=79	=79	=79
4.BBB-_	4.D_ 4.F] (4.A-_	.
8BBB-;]	8D;] 8F; 8A-;])	.
!	!	!LO:DY:b=2
8E-L	8r	p
8GJ	8r	.
=80:|!	=80:|!	=80:|!
*>A2	*>A2	*>A2
[2.BBB-	[2.D [2.F [2.A-X	sf
=81	=81	=81
2.BBB-;]	2.D;] 2.F;] 2.A-;]	.
=82	=82	=82
*>B	*>B	*>B
4r	4r	.
8r	(8F	ff
4DD-	8A-L)	.
.	8r	.
8r	(8FJ	.
=83	=83	=83
4DD-	8A-L)	.
.	8r	.
8r	(8G-J	.
4DD-	8B-L)	.
.	8r	.
8r	(8A-J	.
!!LO:LB:g=original
=84	=84	=84
[2.DD-	[2.F [2.A- [2.c-)	sf
=85	=85	=85
4.DD-;]	4.F;] 4.A-;] 4.c-;]	.
*	*clefG2	*
4r	8d-L	p
.	8r	.
8r	(8d-J	.
=86	=86	=86
4GGG- 4GG-	8B-) 8g-L	.
.	8rg	.
8r	(8g-J	.
*clefG2	*	*
4dd-	8d-L)	.
.	8r	.
8r	(8d-J	.
=87	=87	=87
4r	8B-) 8g-L	.
.	8rg	.
8r	(8g-J	.
4dd-	8d-L)	.
.	8r	.
8r	(8d-J	.
=88	=88	=88
4r	8B-) 8g-L	.
.	8rg	.
8r	(8g-J	.
4dd-	8d-L)	.
.	8r	.
8r	(8d-J	.
=89	=89	=89
4dd-	8f) 8a-L	.
.	8r	.
8r	(8f 8a-J	.
4r	8d-L)	.
.	8r	.
8r	(8d-J	.
*clefF4	*	*
=90	=90	=90
4DD- 4D-	8f) 8a-L	.
.	8r	.
8r	(8f 8a-J	.
*clefG2	*	*
4dd-	8d-L)	.
.	8r	.
8r	(8d-J	.
!!LO:LB:g=original
=91	=91	=91
4r	8f) 8a-L	.
.	8r	.
8r	(8f 8a-J	.
4dd-	8d-L)	.
.	8r	.
8r	(8d-J	.
=92	=92	=92
4r	8f) 8a-L	.
.	8r	.
8r	(8f 8a-J	.
4dd-	8d-L)	.
.	8r	.
8r	(8d-J	.
=93	=93	=93
4dd-	4g-) 4b-	.
*clefF4	*	*
8r	8r	.
4CC#	4cc#	ff
(8CC#	(8cc#	.
=94	=94	=94
4FFF# 4FF#)	4f# 4ff#)	sf
(8FF#	(8ff#	.
4CC#)	4cc#)	.
(8CC#	(8cc#	.
=95	=95	=95
4FFF# 4FF#)	4f# 4ff#)	sf
(8FF#	(8ff#	.
4CC#)	4cc#)	.
(8CC#	(8cc#	.
=96	=96	=96
4FFF# 4FF#)	4f# 4ff#)	sf
(8FF#	(8ff#	.
4CC#)	4cc#)	.
(8CC#	(8cc#	.
=97	=97	=97
4FFF# 4FF#)	4f# 4ff#)	.
(8AA#	(8aa#	.
4C#)	4ccc#)	>
8FF#	8ff#	]]
!!LO:LB:g=original
=98	=98	=98
8BBBnL	2.dd 2.ddd	ff
8DD	.	.
8FF#J	.	.
8BBnL	.	.
8DD	.	.
8FF#J	.	.
=99	=99	=99
8BBBnL	4bn' 4bbn'	.
8DD	.	.
8FF#J	8r	.
8BBnL	4f#' 4ff#'	.
8DD	.	.
8FF#J	8r	.
=100	=100	=100
8BBBnL	4d' 4dd'	.
8DD	.	.
8FF#J	8r	.
8BBnL	4Bn' 4bn'	.
8DD	.	.
8FF#J	8r	.
=101	=101	=101
8BBBnL	4F#<'> 4f#'>	.
8DD	.	.
8FF#J	8r	.
8BBnL	4D<'> 4d'>	.
8BBB	.	.
8DDJ	(8dd	.
=102	=102	=102
4GGG 4GG	4g 4gg)	sf
(8GG	(8gg	.
4DD)	4dd)	.
(8DD	(8dd	.
=103	=103	=103
4GGG 4GG)	4g 4gg)	sf
(8GG	(8gg	.
4DD)	4dd)	.
(8DD	(8dd	.
=104	=104	=104
4GGG 4GG)	4g 4gg)	sf
(8GG	(8gg	.
4DD)	4dd)	.
(8DD	(8dd	.
!!LO:LB:g=original
=105	=105	=105
4GGG) 4GG	4g 4gg)	.
(8BBn	(8bbn	.
4D/)	4ddd)	.
8GG	8gg	.
=106	=106	=106
8CCnL	2.ee-X 2.eee-X	ff
8EE-	.	.
8GGJ	.	.
8CL	.	.
8EE-	.	.
8GGJ	.	.
=107	=107	=107
8CCL	4cc' 4ccc'	.
8EE-	.	.
8GGJ	8r	.
8CL	4g' 4gg'	.
8EE-	.	.
8GGJ	8r	.
=108	=108	=108
8CCL	4e-'\ 4ee-'\	.
8EE-	.	.
8GGJ	8r	.
8CL	4c' 4cc'	.
8EE-	.	.
8GGJ	8r	.
=109	=109	=109
8CCL	4G<'> 4g'>	.
8EE-	.	.
8GGJ	8r	.
8CL	4E-<'> 4e-'>	.
8CC	.	.
8CJ	8r	.
=110	=110	=110
8AAA-L	2.ee- 2.eee-	ff
8CC	.	.
8EE-J	.	.
8AA-L	.	.
8CC	.	.
8EE-J	.	.
=111	=111	=111
8AAA-L	4cc' 4ccc'	.
8CC	.	.
8EE-J	8r	.
8AA-L	4a-' 4aa-'	.
8CC	.	.
8EE-J	8r	.
!!LO:LB:g=original
=112	=112	=112
8AAA-L	4e-' 4ee-'	.
8CC	.	.
8EE-J	8r	.
8AA-L	4c' 4cc'	.
8CC	.	.
8EE-J	8r	.
=113	=113	=113
8AAA-L	4A-' 4a-'	.
8CC	.	.
8EE-J	8r	.
8AA-L	4E-<'> 4e-'>	.
8AAA-	.	.
8AA-J	8r	.
=114	=114	=114
8FFFL	2.ff 2.fff	ff
8AAA-	.	.
8DD-J	.	.
8FFL	.	.
8AAA-	.	.
8DD-J	.	.
=115	=115	=115
8FFFL	4dd-' 4ddd-'	.
8AAA-	.	.
8DD-J	8r	.
8FFL	4a-' 4aa-'	.
8AAA-	.	.
8DD-J	8r	.
=116	=116	=116
8FFFL	4f' 4ff'	.
8AAA-	.	.
8DD-J	8r	.
8FFL	4d-' 4dd-'	.
8AAA-	.	.
8DD-J	8r	.
=117	=117	=117
8FFFL	4A-<'> 4a-'>	.
8AAA-	.	.
8DD-J	8r	.
8FFL	4F<'> 4f'>	.
8AAA-	.	.
8DD-J	8r	.
=118	=118	=118
8GGGL	2.bn 2.bbn	ff
8BBBn	.	.
8DDnJ	.	.
8GGL	.	.
8BBB	.	.
8DDJ	.	.
!!LO:LB:g=original
=119	=119	=119
8GGGL	4f' 4ff'	.
8BBBn	.	.
8DDJ	8r	.
8GGL	4d' 4dd'	.
8BBB	.	.
8DDJ	8r	.
=120	=120	=120
8GGGL<	4Bn' 4bn'	.
8BBBn	.	.
8DDJ	8r	.
8GGL	4F<'> 4f'>	.
8BBB	.	.
8DDJ	8rb	.
=121	=121	=121
8GGGL	4D<'> 4d'>	.
8BBBn	.	.
8DDJ	8rb	.
8GGL	4BBn< 4Bn<	.
8FF	.	.
8DDJ	8G<	.
*	*clefF4	*
=122	=122	=122
4CC	8En 8cL	fp
.	8rF	.
8r	(8cJ	.
*clefG2	*	*
4g	8GL)	.
.	8rF	.
8r	(8GJ	.
=123	=123	=123
4r	8En 8cL)	.
.	8rF	.
8r	(8cJ	.
4g	8GL)	.
.	8rF	.
8r	(8GJ	.
=124	=124	=124
4r	8En 8cL)	.
.	8rF	.
8r	(8cJ	.
4g	8GL)	.
.	8rF	.
8r	(8GJ	.
=125	=125	=125
4g	8Bn 8dL)	.
.	8rA	.
8r	8B (8dJ	.
4r	8GL)	.
.	8rF	.
8r	(8GJ	.
*clefF4	*	*
!!LO:LB:g=original
=126	=126	=126
4GGG 4GG	8Bn 8dL)	fp
.	8r	.
8r	8B (8dJ	.
*clefG2	*	*
4g	8GL)	.
.	8r	.
8r	(8GJ	.
=127	=127	=127
4r	8Bn 8dL)	.
.	8r	.
8r	8B (8dJ	.
4g	8GL)	.
.	8r	.
8r	(8GJ	.
=128	=128	=128
4r	8Bn 8dL)	.
.	8r	.
8r	8B (8dJ	.
4g	8GL)	.
.	8r	.
8r	(8GJ	.
=129	=129	=129
4g	4c 4en)	.
8r	8r	.
*clefF4	*	*
!	!	!LO:DY:b=2
4B-X'	4r	f
(8B-	8r	.
*	*clefG2	*
=130	=130	=130
4d-)	8r	.
!	!	!LO:DY:a
.	(>8enL	f
8r	8gJ	.
4B-'	8b-L	.
.	8dd-	.
(8B-	8eenJ)	.
=131	=131	=131
4d-)	8r	.
.	(8gL<	.
8r	8b-J	.
4B-'	8dd-L	.
.	8een	.
(8B-	8ggJ)	.
=132	=132	=132
4d-)	8r	.
!	!LO:TX:c:i:t=legato	!
.	(8eenL	.
8r	8ggJ	.
4B-'	8bb-L	.
.	8ddd-	.
(8B-	8eeenJ)	.
!!LO:LB:g=original
=133	=133	=133
8d-L)	4r	.
8B-	.	.
8cJ	8r	.
8d-L	4ee-X'	.
8c	.	.
8B-J	(8ee-	.
=134	=134	=134
8AnL	4gg-)	.
8AAn	.	.
8CJ	8r	.
8FL	4ee-'	.
8A	.	.
8cJ	(8ee-	.
=135	=135	=135
8r	4gg-)	.
8CL	.	.
8FJ	8r	.
8AnL	4ee-'	.
8c	.	.
8fJ	(8ee-	.
=136	=136	=136
8r	4gg-)	.
8FL	.	.
8AnJ	8r	.
8cL	4ee-'	.
8f	.	.
8anJ	(8ee-	.
=137	=137	=137
4r	8gg-L)	.
.	8ee-	.
8r	8ffJ	.
4A-X'	8gg-L	.
.	8ff	.
(8A-	8ee-J	.
=138	=138	=138
4c-)	8ddnL	.
.	8d	.
8r	8fJ	.
4A-'	8a-L>	.
.	8cc-	.
(8A-	8ddJ	.
=139	=139	=139
4c-)	8r	.
.	8fL	.
8r	8a-J	.
4A-'	8cc-L	.
.	8dd	.
(8A-	8ffJ	.
!!LO:LB:g=original
=140	=140	=140
4c-)	8r	.
!	!LO:TX:c:i:t=legato	!
.	8ddL	.
8r	8ffJ	.
4A-'	8aa-L	.
.	8ccc-	.
(8A-	8dddJ	.
=141	=141	=141
8c-L)	4r	.
8A-	.	.
8B-J	8r	.
8c-L	4ddd-'	.
8B-	.	.
8A-J	(8ddd-	.
=142	=142	=142
8GL<	4fff-)	.
8GG	.	.
8BB-J	8r	.
8E-L	4ddd-'	.
8G	.	.
8B-J	(8ddd-	.
=143	=143	=143
8r	4fff-)	.
8BB-L<	.	.
8E-J	8r	.
8GL	4ddd-'	.
8B-	.	.
8e-J	(8ddd-	.
=144	=144	=144
8r	4fff-)	.
8E-L	.	.
8GJ	8r	.
8B-L	4ddd-'	.
8e-	.	.
8gJ	(8ddd-	.
=145	=145	=145
4r	8fff-L)	.
.	8ddd-	.
8r	8eee-J	.
4GG	8fff-L	.
.	8eee-	.
8GG	8ddd-J	.
=146	=146	=146
8AA-L<	(8cccL	<
8C	8aa-	.
8E-J	8ee-J	.
8A-L	8ccL	.
8c	8aa-	.
8e-J	8ee-J	.
!!LO:LB:g=original
=147	=147	=147
8A-L	8cccL	.
8c	8aa-	.
8e-J	8ee-J	.
8a-L	8ccL	.
8c	8aa-	.
8e-J	8ee-J	.
=148	=148	=148
8E-L	8cccL	.
8A-	8aa-	.
8cJ	8ee-J	.
8e-L	8ccL	.
8A-	8aa-	.
8cJ	8ee-J	.
=149	=149	=149
8CL	8cccL	.
8E-	8aa-	.
8A-J	8ee-J	.
8cL	8ccL	.
8E-	8aa-	.
8A-J	8ee-J)	.
=150	=150	=150
[2.AA- [2.C [2.E- [2.A-	[2.cc [2.ee- [2.aa- [2.ccc	ff
=151	=151	=151
4AA-] 4C] 4E-] 4A-]	8cc] 8ee-] 8aa-] 8cccL]	.
.	8aa-	.
8r	8ee-J	.
4r	8ccL<	.
.	8a-	.
8r	8e-J	.
=152	=152	=152
2.rGG	8ccL	.
.	8a-	.
.	8e-J	.
!LO:TX:b:t=m.g.	!	!
.	8c<L	.
.	8A-<	.
.	8E-<J	.
=153	=153	=153
!	!LO:TX:c:i:t=m.d.	!
4rGG	8c<L	.
.	8A-<	.
8rGG	8E-<J	.
8CL<	4r	.
8AA-	.	.
8GGJ	8r	.
!!LO:LB:g=original
=154	=154	=154
8FFL	(8aa-L	p
8AA-	8ff	.
8CJ	8ccJ	.
8FL	8a-L	<
8A-	8ff	.
8cJ	8ccJ	.
=155	=155	=155
8FL	8aa-L	.
8A-	8ff	.
8cJ	8ccJ	.
8fL	8a-L	.
8A-	8ff	.
8cJ	8ccJ	.
=156	=156	=156
8CL	8aa-L	.
8F	8ff	.
8A-J	8ccJ	.
8cL	8a-L	.
8F	8ff	.
8A-J	8ccJ	.
=157	=157	=157
8AA-L	8aa-L	.
8C	8ff	.
8FJ	8ccJ	.
8A-L	8a-L	.
8C	8ff	.
8FJ	8ccJ)	.
=158	=158	=158
[2.FF [2.AA- [2.C [2.F	[2.a- [2.cc [2.ff [2.aa-	ff
=159	=159	=159
4FF] 4AA-] 4C] 4F]	8a-] 8cc] 8ff] 8aa-L]	.
.	8ff	.
8r	8ccJ	.
4r	8a-L	.
.	8f	.
8r	8cJ	.
=160	=160	=160
2.rGG	8a-L	.
.	8f	.
.	8cJ	.
!LO:TX:b:i:t=m.g.	!	!
.	8A-<L	.
.	8F<	.
.	8C<J	.
!!LO:LB:g=original
=161	=161	=161
!LO:TX:a:i:t=m.d.	!	!
4rEE	8A-<L	.
.	8F<	.
8rEE	8C<J	.
8AA-L<	4r	.
8FF	.	.
8EE-J	8r	.
=162	=162	=162
8DDnL	8aa-L	p
8FF	8ff	.
8BB-J	8b-J	.
8DL	8a-L	<
8F	8ff	.
8B-J	8b-J	.
=163	=163	=163
8DL	8aa-L	.
8F	8ff	.
8B-J	8b-J	.
8dL	8a-L	.
8F	8ff	.
8B-J	8b-J	.
=164	=164	=164
8BB-L	8aa-L	.
8D	8ff	.
8FJ	8b-J	.
8B-L	8a-L	.
8D	8ff	.
8FJ	8b-J	.
=165	=165	=165
8FFL	8aa-L	.
8BB-	8ff	.
8FJ	8b-J	.
8DDL	8a-L	.
8BB-	8ff	.
8DJ	8b-J	.
=166	=166	=166
8BBB- 8BB-	8a-' 8dd' 8ff' 8aa-'	sf
*	*clefF4	*
!	!	!LO:DY:t=%s legato
8r	8DL	p
8r	8FJ	.
4r	8A-L	.
.	8F	.
8r	8DJ	.
=167	=167	=167
2.r	8A-L	.
.	8F	.
.	8DJ	.
.	8A-L	.
.	8F	.
.	8DJ	.
!!LO:LB:g=original
=168	=168	=168
2.r	8A-L	.
.	8F	.
.	8DJ	.
.	8A-L	.
.	8F	.
.	8DJ	.
=169	=169	=169
2.r	8A-L	.
.	8F	.
.	8DJ	.
.	8A-L	.
.	8F	.
.	8DJ	.
=170	=170	=170
2.r	8A-L	.
.	8F	.
.	8DJ	.
.	8A-L	.
.	8F	.
.	8DJ	.
=171	=171	=171
2.r	8A-L	.
.	8F	.
.	8DJ	.
.	8A-L	.
.	8F	.
.	8DJ	.
=172	=172	=172
2.r	8A-L	pp
.	8F	.
.	8DJ	.
.	8A-L	.
.	8F	.
.	8DJ	.
=173	=173	=173
4r	8A-L	.
.	8F	.
8r	8DJ	.
!	!	!LO:DY:b=2:rj
8DL	4r	f
8E-	.	.
8GJ	8r	.
=174	=174	=174
8BB-L	2.r	.
8E-	.	.
8GJ	.	.
8DL	.	.
8E-	.	.
8GJ	.	.
*	*clefG2	*
!!LO:LB:g=original
=175	=175	=175
8BB-L	4r	.
8E-	.	.
8GJ	8r	.
8DL	4r	.
8E-	.	.
8GJ	8bb-'	p
=176	=176	=176
8BB-L	(4bb-^	.
8F	.	.
8A-J	8aa-	.
8EnL	4ff	.
8F	.	.
8A-J	8dd)	.
=177	=177	=177
8BB-L	4ee-'	.
8E-X	.	.
8GJ	8r	.
8DL	4r	.
8E-	.	.
8GJ	8b-'	.
=178	=178	=178
8BB-L	(4b-^/	.
8F	.	.
8A-J	8a-	.
8EnL	4f	.
8F	.	.
8A-J	8d)	.
=179	=179	=179
4EE-X 4E-X	4G 4e-	.
8r	8r	.
8r	4r	.
8E-L	.	.
8GJ	8r	.
=180	=180	=180
8BB-L	2.r	.
8E-	.	.
8GJ	.	.
8DL	.	.
8E-	.	.
8GJ	.	.
=181	=181	=181
8BB-L	4r	.
8E-	.	.
8GJ	8r	.
8DL	4r	.
8E-	.	.
8GJ	8bb-'	.
!!LO:LB:g=original
=182	=182	=182
8BB-L	(8bb-^L	.
8F	8aa-	.
8A-J	8ggJ	.
8EnL	8aa-L	.
8F	8ff	.
8A-J	8ddJ)	.
=183	=183	=183
8BB-L	4ee-	.
8E-X	.	.
8GJ	8r	.
8DL	4r	.
8E-	.	.
8GJ	8b-'	.
=184	=184	=184
8BB-L	(8b-^L	.
8F	8a-	.
8A-J	8gJ	.
8EnL	8a-L	.
8F	8f	.
8A-J	8dJ)	.
=185	=185	=185
4EE-X 4E-X	4G 4e-	.
8r	8r	.
4r	8B-L	f
.	8re	.
8r	(8B-J	.
=186	=186	=186
4EE- 4E-	8G) 8e-L	sf
.	8rg	.
8r	(8e-J	.
*clefG2	*	*
4b-	8B-L)	.
.	8re	.
8r	(8B-J	.
=187	=187	=187
4r	8G) 8e-L	.
.	8rg	.
8r	(8e-J	.
4b-	8B-L)	.
.	8re	.
8r	(8B-J	.
=188	=188	=188
4r	8G) 8e-L	.
.	8rg	.
8r	(8e-J	.
4b-	8B-L)	.
.	8re	.
8r	(8B-J	.
!!LO:LB:g=original
=189	=189	=189
4b-	8d) 8fL	.
.	8rg	.
8r	(8d 8fJ	.
4r	8B-L)	.
.	8re	.
8r	(8B-J	.
*clefF4	*	*
=190	=190	=190
4BBB- 4BB-	8d) 8fL	sf
.	8rg	.
8r	(8d 8fJ	.
*clefG2	*	*
4b-	8B-L)	.
.	8re	.
8r	(8B-J	.
=191	=191	=191
4r	8d) 8fL	.
.	8rg	.
8r	(8d 8fJ	.
4b-	8B-L)	.
.	8re	.
8r	(8B-J	.
=192	=192	=192
4r	8d) 8fL	.
.	8rg	.
8r	(8d 8fJ	.
4b-	8B-L)	.
.	8re	.
8r	(8B-J	.
=193	=193	=193
*^	*	*
4ryy	4b-	4e-) 4g	.
8r	8r	8r	.
*v	*v	*	*
*clefF4	*	*
*^	*	*
4.E-	([4.E-	8e-L	p
.	.	8rg	.
.	.	(8e-J	.
=194	=194	=194	=194
2.E-_	4.C	8a-L)	.
.	.	8r	.
.	.	(8a-J	.
.	4.AA-	8ccL)	.
.	.	8r	.
.	.	(8ccJ	.
=195	=195	=195	=195
4E-]	4GG)	8b-L)	.
.	.	8r	.
8r	8r	(8b-J	.
4.E-	([4.E-	8ee-L)	.
.	.	8rdd	.
.	.	(8ee-J	.
!!LO:LB:g=original
=196	=196	=196	=196
2.E-_	4.C	8aa-L)	.
.	.	8r	.
.	.	(8aa-J	.
.	4.AA-	8cccL)	.
.	.	8r	.
.	.	(8cccJ	.
=197	=197	=197	=197
4E-]	4GG)	8bb-L)	.
.	.	8r	.
8r	8r	(8b-J	.
4.E-	[4.E-	8e-L)	.
.	.	8r	.
.	.	(8e-J	.
=198	=198	=198	=198
2.E-_	4.C	8a-L)	.
.	.	8r	.
.	.	(8a-J	.
.	4.AA-	8ccL)	.
.	.	8r	.
.	.	(8ccJ	.
*v	*v	*	*
=199	=199	=199
4GG 4E-]	8b-L)	.
.	8r	.
8r	(8gJ	.
4AA- 4F	8fL)	.
.	8r	.
8r	(8a-J	.
=200	=200	=200
4BB- 4G	8e-L)	.
.	8rb	.
8r	(8gJ	.
4BB- 4A-	8dL)	.
.	8rg	.
8r	(8fJ	.
=201	=201	=201
*^	*	*
4ryy	4EE-	4e-)	.
8r	8r	8r	.
4.E-^	([4.E-	8e-L	.
.	.	8rg	.
.	.	(8e-J	.
=202	=202	=202	=202
2.E-_	4.C-	8a-L)	.
.	.	8r	.
.	.	(8a-J	.
.	4.AA-	8cc-L)	.
.	.	8r	.
.	.	(8cc-J	.
!!LO:LB:g=original
=203	=203	=203	=203
4E-]	4GG-)	8b-L)	.
.	.	8r	.
8r	8r	(8b-J	.
4.E-^	([>4.E-	8ee-L)	.
.	.	8r	.
.	.	(8ee-J	.
=204	=204	=204	=204
2.E-_	4.C-	8aa-L)	.
.	.	8rff	.
.	.	(8aa-J	.
.	4.AA-	8ccc-L)	.
.	.	8r	.
.	.	(8ccc-J	.
=205	=205	=205	=205
4E-]	4GG-)	8bb-L)	.
.	.	8r	.
8r	8r	(8b-J	.
4.G-^	([>4.G-	8g-L)	.
.	.	8r	.
.	.	(<8g-J	.
=206	=206	=206	=206
2.G-X_	4.E-	8cc-L)	.
.	.	8r	.
.	.	(8cc-J	.
.	4.C-	8ee-L)	.
.	.	8rdd	.
.	.	(8ee-J	.
=207	=207	=207	=207
4.G-X]	4BB-)	8dd-L)	.
.	.	8r	.
.	8rD	(8dd-J	.
4.G-^	(4.G-	8gg-L)	.
.	.	8r	.
.	.	(8gg-J	.
=208	=208	=208	=208
[2.G-	4.E-	8ccc-L)	.
.	.	8r	.
.	.	(8ccc-J	.
.	4.C-	8eee-L)	.
.	.	8r	.
.	.	(8eee-J	.
=209	=209	=209	=209
4G-X]	4BB-X)	8ddd-L)	.
.	.	8rdd	.
8r	8r	(8dd-J	.
4ryy	(4.An	8g-L)	<
.	.	8r	.
8ryy	.	(<8g-J	.
*v	*v	*	*
!!LO:LB:g=original
=210	=210	=210
4.A-	8ccnL)	.
.	8r	.
.	(8ccJ	.
4.G-)	8ee-L)	.
.	8r	.
.	(8ee-J	.
=211	=211	=211
8FL	[2.dd-)	f
8A-	.	.
8c-J	.	.
8FL	.	.
8A-	.	.
8c-J	.	.
=212	=212	=212
8FL	4.dd-X]	.
8A-	.	.
8c-J	.	.
8FL	4dd-	.
8A-	.	.
8c-J	8r	.
=213	=213	=213
8FL	4dd-	.
8A-	.	.
8c-J	8r	.
8FL	4dd-	.
8A-	.	.
8c-J	8r	.
=214	=214	=214
8FL	4dd-	.
8A-	.	.
8c-J	8r	.
8B-L	4dd-	.
8A-	.	.
8G-J	8r	.
=215	=215	=215
*	*^	*
8FL	(4.dd-	[2.dd-	.
8A-	.	.	.
8c-J	.	.	.
8FL	[4.ddd-)	.	sf
8A-	.	.	.
8c-J	.	.	.
*	*v	*v	*
=216	=216	=216
8FL	4.dd-X] 4.ddd-X]	.
8A-	.	.
8c-J	.	.
8FL	4dd- 4ddd-	.
8A-	.	.
8c-J	8r	.
!!LO:LB:g=original
=217	=217	=217
8FL	4dd- 4ddd-	.
8A-	.	.
8c-J	8r	.
8FL	4dd- 4ddd-	.
8A-	.	.
8c-J	8r	.
=218	=218	=218
8FL	4dd- 4ddd-	.
8A-	.	.
8c-J	8r	.
8FL	4dd- 4ddd-	.
8A-	.	.
8c-J	8r	.
=219	=219	=219
8FL	4dd- 4ddd-	f
8A-	.	.
8c-J	8ff	.
8B-L	8gg-L	.
8A-	8aa-	.
8G-J	8bb-J	.
=220	=220	=220
8FL	4r	.
8G-	.	.
8A-J	8ddn	.
8G-L	8ee-L	.
8F	8ff	.
8E-J	8gg-J	.
=221	=221	=221
8D-L	4r	.
8E-	.	.
8F-J	8b-	.
8E-L	8cc-L	.
8D-	8dd-	.
8C-J	8ee-J	.
=222	=222	=222
8BB-L	4r	.
8C-	.	.
8D-J	8gn	.
8C-L	8a-L	.
8BB-	8b-	.
8AA-J	8cc-J	.
=223	=223	=223
4CC-	8r	.
.	8A-L	.
8r	8c-J	.
4r	8e-L	.
.	8c-	.
8r	8e-J	.
!!LO:LB:g=original
=224	=224	=224
4C- 4E- 4A-	8a-L	sf
.	8e-	.
8r	8a-J	.
4r	8cc-L>	.
.	8a-	.
8r	8cc-J	.
=225	=225	=225
4r	8ee-L	.
.	8dd-	.
8r	8cc-J	.
8C-L	8b-L	.
8E-	8cc-	.
8A-J	8a-J	.
=226	=226	=226
8D-L	8dd-L>	.
8G-	8b-	.
8B-J	8g-J	.
8D-L	8cc-L	.
8A-	8a-	.
8c-J	8fJ	.
=227	=227	=227
8FL	8r	.
8A-	(8ddd-L	.
8c-J	8ffJ	.
8B-L	8gg-L	.
8A-	8aa-	.
8G-J	8bb-J)	.
=228	=228	=228
8FL	8r	.
8G-	(8bb-L	.
8A-J	8ddnJ	.
8G-L	8ee-L	.
8F	8ff	.
8E-J	8gg-J)	.
=229	=229	=229
8D-L	8r	.
8E-	(8gg-L	.
8F-J	8b-J	.
8E-L	8cc-L	.
8D-	8dd-	.
8C-J	8ee-J)	.
=230	=230	=230
8BB-L	8r	.
8C-	(8ee-L	.
8D-J	8gnJ	.
8C-L	8a-L	.
8BB-	8b-	.
8AA-J	8cc-J)	.
!!LO:LB:g=original
=231	=231	=231
4CC-	8r	.
.	8A-L	.
8r	8c-J	.
4r	8e-L	.
.	8c-	.
8r	8e-J	.
=232	=232	=232
4C- 4E- 4A-	8a-L	sf
.	8e-	.
8r	8a-J	.
4r	8cc-L	.
.	8a-	.
8r	8cc-J	.
=233	=233	=233
4C- 4E- 4A- 4c-	8ee-L<	sf
.	8e-	.
8r	8a-J	.
4r	8cc-L	.
.	8a-	.
8r	8cc-J	.
*clefG2	*	*
=234	=234	=234
4c- 4e- 4a-	8ee-L	sf
.	8cc-	.
8r	8ee-J	.
4r	8aa-L	.
.	8ee-	.
8r	8aa-J	.
=235	=235	=235
8r	8ccc-L	sf
8cc-L	8ee-	.
8a-J	8aa-J	.
8e-L	8ccc-L	.
8a-	8aa-	.
8e-J	8ccc-J	.
=236	=236	=236
8c-L	8eee-L	sf
8cc-	8ee-	.
8a-J	8aa-J	.
8e-L	8ccc-L	.
8a-	8aa-	.
8e-J	8ccc-J	.
=237	=237	=237
4c-	8eee-L	.
.	(8ee-	.
8r	8ddnJ	.
4r	8ee-L	.
.	8een	.
8r	8ffJ)	.
!!LO:LB:g=original
=238	=238	=238
2.r	(8gg-L	.
.	8ggn	.
.	8aa-J	.
.	8aanL	.
.	8bb-	.
.	8ccc-J	.
=239	=239	=239
4r	8cccnL	.
.	8ddd-	.
8r	8dddnJ	.
4c- 4e- 4a-	8eee-L	.
.	8ccc-	.
8r	8aa-J	.
=240	=240	=240
4d- 4g- 4b-	4gg-)	.
8r	8r	.
4d- 4f 4cc-	4.aa-T	.
8r	.	.
*clefF4	*	*
.	(16ggqLL	.
.	16aa-qJJ)	.
=241	=241	=241
8GG-L<	8gg-'L	.
8D-	8r	.
8G-J	(8g-J	.
8B-L	8b-'L)	.
8G-	8r	.
8D-J	(8b-J	.
=242	=242	=242
8GG-L<	8dd-'L)	.
8D-	8rdd	.
8G-J	(8dd-J	.
8B-L	8gg-'L)	.
8G-	8r	.
8D-J	(8gg-J	.
=243	=243	=243
8GG-L<	8bb-'L)	.
8D-	8rff	.
8G-J	(8bb-'J	.
8B-L	8ddd-'L)	.
8G-	8rff	.
8D-J	(8gg-J	.
=244	=244	=244
8GG-L<	8bb-'L)	.
8D-	8rdd	.
8G-J	(8dd-J	.
8B-L	8gg-'L)	.
8G-	8rdd	.
8D-J	(8b-J	.
!!LO:LB:g=original
=245	=245	=245
8GG-L<	8dd-'L)	.
8D-	8r	.
8G-J	(8g-J	.
8B-L	8b-'L<)	.
8G-	8r	.
8D-J	(>8a-J	.
=246	=246	=246
8DD-L	8cc-'L)	.
8D-	8r	.
8FJ	(8fJ	.
8A-L	8a-'L)	.
8F	8r	.
8D-J	(8fJ	.
=247	=247	=247
8GG-L<	8g-'L)	.
8D-	8r	.
8G-J	(8g-J	.
8B-L	8b-'L>)	.
8G-	8r	.
8D-J	(8b-J	.
=248	=248	=248
8GG-L<	8dd-'L)	.
8D-	8rdd	.
8G-J	(8dd-J	.
8B-L	8gg-'L)	.
8G-	8r	.
8D-J	(8gg-J	.
=249	=249	=249
8GG-L<	8bb-'L)	.
8D-	8r	.
8G-J	(8bb-'J	.
8B-L	8ddd-'L)	.
8G-	8r	.
8D-J	(8gg-J	.
=250	=250	=250
8GG-L<	8bb-'L)	.
8D-	8r	.
8G-J	(8dd-J	.
8B-L	8gg-'L)	.
8G-	8rdd	.
8D-J	(8b-J	.
=251	=251	=251
8GG-L<	8dd-'L)	.
8D-	8r	.
8G-J	(8b-J	.
8GG-L<	8dd-'L)	.
8D-	8r	.
8G-J	(8b-J	.
!!LO:LB:g=original
=252	=252	=252
8FFL	8ddn'L)	.
8BB-	8r	.
8FJ	(8a-J	.
8BBB-L	8dd'L)	.
8FF	8rdd	.
8BB-J	(8ddJ	.
=253	=253	=253
8EE-L	8ee-'L<)	.
8BB-	8r	.
8E-J	(8e-J	.
8G-L	8g-'L)	.
8E-	8r	.
8BB-J	(8g-J	.
=254	=254	=254
8EE-L	8b-'L)	.
8BB-	8r	.
8E-J	(8b-J	.
8G-L	8ee-'L)	.
8E-	8rdd	.
8BB-J	(8ee-J	.
=255	=255	=255
8EE-L	8gg-'L)	.
8BB-	8r	.
8E-J	(8gg-J	.
8G-L	8bb-'L)	.
8E-	8r	.
8BB-J	(8ee-J	.
=256	=256	=256
8EE-L	8gg-'L)	.
8BB-	8r	.
8E-J	(8b-J	.
8G-L	8ee-'L)	.
8E-	8r	.
8BB-J	(>8g-J	.
=257	=257	=257
8EE-L	8b-'L)	.
8BB-	8rg	.
8E-J	(8e-J	.
8G-L	8g-'L)	.
8E-	8rb	.
8BB-J	(8fJ	.
=258	=258	=258
8BBB-L	8a-'L)	.
8BB-	8rg	.
8DnJ	(8dnJ	.
8FL	8f'L)	.
8D	8rg	.
8BB-J	(8dJ	.
!!LO:LB:g=original
=259	=259	=259
8EE-L	8e-'L)	.
8BB-	8r	.
8E-J	(8e-J	.
8G-L	8g-'L)	.
8E-	8r	.
8BB-J	(8g-J	.
=260	=260	=260
8EE-L	8b-'L)	.
8BB-	8r	.
8E-J	(8b-J	.
8G-L	8ee-'L)	.
8E-	8rdd	.
8BB-J	(8ee-J	.
=261	=261	=261
8EE-L	8gg-'L)	.
8BB-	8r	.
8E-J	(8gg-J	.
8G-L	8bb-'L)	.
8E-	8rdd	.
8BB-J	(8ee-J	.
=262	=262	=262
8EE-L	8gg-'L)	.
8BB-	8r	.
8E-J	(8b-J	.
8G-L	8ee-'L)	.
8E-	8r	.
8BB-J	(>8g-J	.
=263	=263	=263
8EE-L	8b-'L)	.
8BB-	8rg	.
8E-J	(8e-J	.
8G-L	8g-'L)	.
8E-	8rg	.
8BB-J	(8B-J	.
=264	=264	=264
8E-L	8e-'L)	.
8BB-	8re	.
8GG-J	(8AnJ	.
8BB-L	8c'L)	.
8GG-	8re	.
8EE-'J	(8AJ	.
=265	=265	=265
!	!	!LO:DY:t=%s  legato
4BBB-	8B-L)	fp
.	8d	.
8r	8fJ	.
4r	8c#L	.
.	8d	.
8r	8fJ	.
!!LO:LB:g=original
=266	=266	=266
8BB-L	2.r	p
8D	.	.
8FJ	.	.
8C#L	.	.
8D	.	.
8FJ	.	.
=267	=267	=267
2.r	8B-L	.
.	8d	.
.	8fJ	.
.	8c#L	.
.	8d	.
.	8fJ	.
=268	=268	=268
8BB-L	2.r	.
8D	.	.
8FJ	.	.
8C#L	.	.
8D	.	.
8FJ	.	.
=269	=269	=269
2.r	8B-L	.
.	8f	.
.	8a-J	.
.	8enL	.
.	8f	.
.	8a-J	.
=270	=270	=270
8BB-L	2.r	.
8F	.	.
8A-J	.	.
8EnL	.	.
8F	.	.
8A-J	.	.
=271	=271	=271
2.r	8B-L	.
.	8f	.
.	8a-J	.
.	8enL	.
.	8f	.
.	8a-J	.
=272	=272	=272
8BB-L	2.r	.
8F	.	.
8A-J	.	.
8EnL	.	.
8F	.	.
8A-J	.	.
=273	=273	=273
4r	(8B-L	.
.	8f	.
8r	8a-J)	.
(8BB-L	4r	<
8F	.	.
8A-J)	8r	.
!!LO:LB:g=original
=274	=274	=274
4r	(8B-L	.
.	8f	.
8r	8a-J)	.
(8BB-L	4r	.
8F	.	.
8A-J)	8r	.
=275	=275	=275
4r	(8B-L	.
.	8f	.
8r	8a-J)	.
(8BB-L	4r	.
8F	.	.
8A-J)	8r	.
=276	=276	=276
4r	(8B-L	.
.	8f	.
8r	8a-J)	.
(8BB-L	4r	.
8F	.	.
8A-J)	8r	.
=277	=277	=277
2.r	8B-L	>
.	8f	.
.	8a-J	.
.	8B-L	.
.	8f	.
.	8a-J	.
=278	=278	=278
2.r	8B-L	.
.	8f	.
.	8a-J	.
.	8B-L	.
.	8f	.
.	8a-J	.
=279	=279	=279
2.r	8B-L	pp
.	8f	.
.	8a-J	.
.	8B-L	.
.	8f	.
.	8a-J	.
=280	=280	=280
2.r	8B-L	.
.	8f	.
.	8a-J	.
.	8B-L	.
.	8e-	.
.	8gJ	.
!!LO:LB:g=original
=281	=281	=281
2.r	8B-L	.
.	8e-	.
.	8gJ	.
.	8dL	.
.	8e-	.
.	8gJ	.
=282	=282	=282
4r	8B-L	.
.	8e-	.
8r	8gJ	.
4r	8dL	.
.	8e-	p
*clefG2	*	*
8bb-'	8gJ	.
=283	=283	=283
(4bb-	8B-L	.
.	8f	.
8aa-	8a-J	.
4ff	8enL	.
.	8f	.
8dd)	8a-J	.
=284	=284	=284
4ee-	8B-L	.
.	8e-X	.
8r	8gJ	.
4r	8dL	.
.	8e-	.
*clefF4	*	*
8BB-'	8gJ	.
=285	=285	=285
(4BB-	8dL	.
.	8f	.
8AA-	8a-J	.
4FF	8B-L	.
.	8f	.
8DD)	8a-J	.
=286	=286	=286
4EE-	8B-L	.
.	8e-	.
8r	8gJ	.
4r	8dL	.
.	8e-	.
8r	8gJ	.
=287	=287	=287
2.r	8B-L	.
.	8e-	.
.	8gJ	.
.	8dL	.
.	8e-	.
.	8gJ	.
!!LO:LB:g=original
=288	=288	=288
4r	8B-L	.
.	8e-	.
8r	8gJ	.
4r	8dL	.
.	8e-	.
*clefG2	*	*
8bb-'	8gJ	.
=289	=289	=289
(4bb-	8B-L	.
.	8f	.
8aa-	8a-J	.
4ff	8enL	.
.	8f	.
8dd)	8a-J	.
=290	=290	=290
4ee-	8B-L	.
.	8e-X	.
8r	8gJ	.
4r	8dL	.
.	8e-	.
*clefF4	*	*
8BB-'	8gJ	.
=291	=291	=291
(4BB-	8dL	.
.	8f	.
8AA-	8a-J	.
4FF	8B-L	.
.	8f	.
8DD)	8a-J	.
=292	=292	=292
4EE-	8B-L	.
.	8e-	.
8r	8gJ	.
4r	8e-L	.
.	8g	.
*clefG2	*	*
8ccc'	8b-J	.
=293	=293	=293
(4ccc	8enL	.
.	8g	.
8bb-	8b-J	.
4gg	8cL	.
.	8g	.
8een)	8b-J	.
=294	=294	=294
4ff	8cL	.
.	8f	.
8r	8a-J	.
4r	8enL	.
.	8f	.
*clefF4	*	*
8C'	8a-J	.
!!LO:LB:g=original
=295	=295	=295
(4C	8enL	.
.	8g	.
8BB-	8b-J	.
4GG	8cL	.
.	8g	.
8EEn)	8b-J	.
=296	=296	=296
4FF	8cL	.
.	8f	.
8r	8a-J	.
4r	8gL	.
.	8a-	.
*clefG2	*	*
8eee-'	8ccJ	.
=297	=297	=297
(4eee-	8gL>	.
.	8b-	.
8ddd-	8dd-J	.
4bb-	8e-L	.
.	8b-	.
8gg)	8dd-J	.
=298	=298	=298
4aa-	8e-L	.
.	8a-	.
8r	8ccJ	.
4r	8gL	.
.	8a-	.
*clefF4	*	*
8E-'	8ccJ	.
=299	=299	=299
(>4E-	8gL>	.
.	8b-	.
8D-	8dd-J	.
4BB-	8e-L	.
.	8b-	.
8GG)	8dd-J	.
=300	=300	=300
4AA-	8e-L	.
.	8a-	.
8r	8ccJ	.
4r	8gL	.
.	8a-	.
*clefG2	*	*
8eee-'	8ccJ	.
!!LO:LB:g=original
=301	=301	=301
(4eee-	8gL>	.
.	8b-	.
8ddd-	8dd-J	.
4bb-	8e-L	.
.	8b-	.
8gg)	8dd-J	.
*clefF4	*	*
=302	=302	=302
(>4E-	8gL>	<
.	8b-	.
8D-	8dd-J	.
4BB-	8e-L	.
.	8b-	.
8GG)	8dd-J	.
=303	=303	=303
(>4E-	8gL>	.
.	8b-	.
8D-	8dd-J	.
4BB-	8e-L	.
.	8b-	.
8GG)	8dd-J	.
=304	=304	=304
(>4E-	8gL>	.
.	8b-	.
8D-	8dd-J	.
4BB-	8e-L	.
.	8b-	.
8GG)	8dd-J	.
=305	=305	=305
8A-L	8e-L	f
8E-	8a-	.
8CJ	8ccJ	.
8E-L	8gL	.
8C	8a-	.
8AA-J	8ccJ	.
=306	=306	=306
8A-L	8e-L	sf
8E-	8a-	.
8CJ	8ccJ	.
8E-L	8gL	.
8C	8a-	.
8AA-J	8ccJ	.
!!LO:LB:g=original
=307	=307	=307
8A-L	8e-L	sf
8E-	8a-	.
8CJ	8ccJ	.
8E-L	8gL	.
8C	8a-	.
8AA-J	8ccJ	.
=308	=308	=308
8A-L	8e-L	sf
8E-	8a-	.
8CJ	8ccJ	.
8E-L	8gL	.
8C	8a-	.
8AA-J	8ccJ	.
=309	=309	=309
[2.AAn: [2.C: [<2.E-: [2.G-: [2.An:	[2.e-:\ [2.g-:\ [2.an:\ [2.cc:\ [2.ee-:\	ff
=310	=310	=310
4.AA_ 4.C_ 4.E-_< 4.G-_ 4.A_	4.e-\_ 4.g-\_ 4.a\_ 4.cc\_ 4.ee-\_	.
4AA;] 4C;] 4E-;] 4G-;] 4A;]	4e-\;] 4g-\;] 4a\;] 4cc\;] 4ee-\;]	.
!	!	!LO:DY:a=2
8BB-'	8r	p
=311	=311	=311
(4BB-	4r	.
8AA-X	8r	.
4FF	4r	.
8DD)	8bb-'	p
=312	=312	=312
4EE-	(4bb-	.
8r	8ggn)	.
4r	4ee-'	.
8r	8b-'	.
=313	=313	=313
2.BB- 2.F (2.A-	(4b-/	.
.	8a-	.
.	4f	.
.	8d)	.
!!LO:LB:g=original
=314	=314	=314
4E- 4G)	4e-	.
8r	8r	.
4r	8r	.
*	*clefF4	*
!	!	!LO:DY:b
.	8A-L	f
8r	8cJ	.
=315	=315	=315
8AA-L	8E-L	sf
8EE-	8A-	.
8CCJ	8cJ	.
8EE-L	8GL	.
8CC	8A-	.
8AAA-J	8cJ	.
=316	=316	=316
8AA-L	8E-L	sf
8EE-	8A-	.
8CCJ	8cJ	.
8EE-L	8GL	.
8CC	8A-	.
8AAA-J	8cJ	.
=317	=317	=317
8AA-L	8E-L	sf
8EE-	8A-	.
8CCJ	8cJ	.
8EE-L	8GL	.
8CC	8A-	.
8AAA-J	8cJ	.
=318	=318	=318
8AA-L	8E-L	sf
8EE-	8A-	.
8CCJ	8cJ	.
8EE-L	8GL	.
8CC	8A-	.
8AAA-J	8cJ	.
=319	=319	=319
[2.AAAn: [2.CC: [2.EE-: [2.GG-: [2.AAn:	[2.E-: [2.G-: [2.An: [2.c: [2.e-:	ff
=320	=320	=320
4.AAA_ 4.CC_ 4.EE-_ 4.GG-_ 4.AA_	4.E-_ 4.G-_ 4.A_ 4.c_ 4.e-_	.
4AAA;] 4CC] 4EE-] 4GG-] 4AA]	4E-;] 4G-;] 4A;] 4c;] 4e-;]	.
*	*clefG2	*
8r	8bb-	p
!!LO:LB:g=original
=321	=321	=321
!	!LO:TX:a:B:t=Poco ritard.	!
4r	(8bb-L	.
.	8aa-X	.
8r	8ggnJ	.
4r	8aa-L	.
.	8ff	.
!	!	!LO:DY:a=2
8BB-	8ddJ)	p
=322	=322	=322
(4BB-	4ee-	.
8GG	8r	.
4EE-)	4r	.
8r	8b-/	.
=323	=323	=323
2.BB- 2.F (2.A-	(8b-L	.
.	8a-	.
.	8gJ	.
.	8a-L	.
.	8f	.
.	8dJ)	.
=324	=324	=324
4E- 4G)	4e-	.
8r	8r	.
4r	4r	.
8r	8b-'/	.
=325	=325	=325
!	!LO:TX:a:B:t=a Tempo	!
(4B-	(4b-/	<
8A-	8a-	.
4F	4f	.
8D)	8d)	.
=326	=326	=326
(4c-	(4cc-/	.
8A-	8a-	.
4F	4f	.
8D)	8d)	.
=327	=327	=327
(4cn	(4ccn/	.
8A-	8a-	.
4F	4f	.
8D)	8d)	.
!!LO:LB:g=original
=328	=328	=328
(4c-	(4cc-/	.
8A-	8a-	.
4F	4f	.
8D)	8d)	.
=329	=329	=329
(4B-	(4b-/	.
8A-	8a-	.
4F	4f	.
8D)	8d)	.
=330	=330	=330
(<4E-	(>4e-	f
8BB-\	8B-<	.
4GG\	4G<	.
8EE-\)	8E-<)	.
=331	=331	=331
4BB-'	4B-<'	.
8r	8r	.
4BBB-' 4BB-'	4F<' 4A-<' 4B<-' 4d<'	.
8r	8r	.
=332	=332	=332
4EE-' 4E-'	4G' 4B-' 4e-'	.
8r	8r	.
4BB-' 4B-'	4f' 4a-' 4b-' 4dd'	.
8r	8r	.
=333	=333	=333
4E-' 4e-'	4g' 4b-' 4ee-'	.
8r	8r	.
4r	4r	.
8r	8r	.
=334	=334	=334
4BB-' 4B-'	4dd' 4ff' 4aa-' 4ddd'	ff
8r	8r	.
4r	4r	.
8r	8r	.
=335	=335	=335
4EE-' 4E-'	4ee-' 4gg' 4eee-'	.
4r	4r	.
4r;	4r;	.
==	==	==
*-	*-	*-
!!!RDF**kern: > = above
!!!RDF**kern: < = below
!!!verovio: beamFrenchStyle
!!!LOR: Durand 1915, plates 9327/9328, Paul Dukas, ed.
!!!PED: Dukas, Paul
!!!URL-vhv: https://verovio.humdrum.org/?file=beethoven/sonatas/sonata18-4.krn
!!!URL-pdf: https://github.com/craigsapp/beethoven-piano-sonatas/blob/master/reference-edition/sonata18-4.pdf
!!!ENC: Craig Stuart Sapp
!!!END: 2007/11/27
!!!EED: Craig Stuart Sapp
!!!EEV: 2021/07/06
